packages/core/src/svgs/tokens/mono/KLAY.svg

<svg width="24" height="24" viewBox="0 0 24 24" fill="none" xmlns="http://www.w3.org/2000/svg">
<path d="M12.3567 2C14.6067 2.05625 16.7005 2.86873 18.413 4.33122L7.26929 15.4936L12.3567 2Z" fill="white"/>
<path d="M12.3567 2C14.6067 2.05625 16.7005 2.86873 18.413 4.33122L7.26929 15.4936L12.3567 2Z" fill="white"/>
<path d="M13.2695 12.025L19.6944 5.57495C21.1848 7.38443 21.9997 9.65577 21.9997 11.9999C21.9997 14.3441 21.1848 16.6153 19.6944 18.4248L13.2695 12.025Z" fill="white"/>
<path d="M13.2695 12.025L19.6944 5.57495C21.1848 7.38443 21.9997 9.65577 21.9997 11.9999C21.9997 14.3441 21.1848 16.6153 19.6944 18.4248L13.2695 12.025Z" fill="white"/>
<path d="M2.01958 11.3747L9.84456 3.51855L4.26956 18.3685C2.66603 16.4035 1.86257 13.906 2.01958 11.3747Z" fill="white"/>
<path d="M2.01958 11.3747L9.84456 3.51855L4.26956 18.3685C2.66603 16.4035 1.86257 13.906 2.01958 11.3747Z" fill="white"/>
<path d="M5.60669 19.6688L12.0378 13.2751L18.4629 19.6688C16.662 21.1773 14.387 22.0027 12.0378 22.0001C9.6816 22.0001 7.43167 21.1875 5.60669 19.6688Z" fill="white"/>
<path d="M5.60669 19.6688L12.0378 13.2751L18.4629 19.6688C16.662 21.1773 14.387 22.0027 12.0378 22.0001C9.6816 22.0001 7.43167 21.1875 5.60669 19.6688Z" fill="white"/>
</svg>

<svg xmlns="http://www.w3.org/2000/svg" width="24" height="24" fill="none" viewBox="0 0 24 24">
    <path fill="#fff" d="M12.357 2a9.6 9.6 0 0 1 6.056 2.331L7.269 15.494z"/>
    <path fill="#fff" d="M12.357 2a9.6 9.6 0 0 1 6.056 2.331L7.269 15.494zm.913 10.025 6.424-6.45a10.106 10.106 0 0 1 0 12.85z"/>
    <path fill="#fff" d="m13.27 12.025 6.424-6.45a10.106 10.106 0 0 1 0 12.85zm-11.25-.65 7.825-7.856-5.575 14.85a10.07 10.07 0 0 1-2.25-6.994"/>
    <path fill="#fff" d="m2.02 11.375 7.825-7.856-5.575 14.85a10.07 10.07 0 0 1-2.25-6.994m3.587 8.294 6.43-6.394 6.426 6.394A10 10 0 0 1 12.038 22a10 10 0 0 1-6.431-2.331"/>
    <path fill="#fff" d="m5.607 19.669 6.43-6.394 6.426 6.394A10 10 0 0 1 12.038 22a10 10 0 0 1-6.431-2.331"/>
</svg>
